X:1
T:Sea to Sea
M:6/8
L:1/8
Q:80
C:S.S. Kelly 1980
S:Slow Air
K:HP
|: e | \
{g}A{d}ce{gef}ecA | \
{g}B{d}cB{G}A2e | \
{gef}ece{ag}adf |
{g}ecA{gBd}B2e | \
{gef}ece{ag}adf | \
{g}ece{gBd}B2e |
{g}f3/2g/2aec{G}A | \
{g}B/2{d}c3/2B{G}A2 :: \
e |
{gef}eceaga | \
{fg}f{g}ec{gef}e2c | \
{g}e{A}eaec{G}A |
{g}cB{G}A{gBd}B2e | \
{g}A{d}cB{g}A{d}ce | \
{ag}adf{gef}e2{A}e |
{g}f3/2g/2aec{G}A | \
{g}B/2{d}c3/2B{G}A2 :|
